X:562
T:Atholl Highlanders, The
R:Pipe march
O:Scotland
M:6/8
K:Amix
|: e3 ecA | ecA Bcd | e3 ecA | Bcd cBA |\
e3 ecA | ecA Bcd | eae fed | cdB A2A :|*
|: Ace Ace | Adf Adf | Ace Ace | Bcd cBA |\
Ace Ace | Adf Adf | eae fed | cdB A2A :|*
|:a2e edc | a2e edc | a2e edc | Bcd cBA |\
a2e edc | a2e edc | eae fed | cdB A2A :|*
|: cAc cAc | dBd dBd | cAc cAc | BGB BGB |\
cAc cAc | dBd dBd | eae fed | cdB A3 :|**
